icons/youtube.svg

<svg aria-labelledby="simpleicons-youtube-icon" role="img" xmlns="http://www.w3.org/2000/svg" viewBox="0 0 24 24"><title id="simpleicons-youtube-icon">YouTube icon</title><path class="a" d="M23.495 6.205a3.007 3.007 0 0 0-2.088-2.088c-1.87-.501-9.396-.501-9.396-.501s-7.507-.01-9.396.501A3.007 3.007 0 0 0 .527 6.205a31.247 31.247 0 0 0-.522 5.805 31.247 31.247 0 0 0 .522 5.783 3.007 3.007 0 0 0 2.088 2.088c1.868.502 9.396.502 9.396.502s7.506 0 9.396-.502a3.007 3.007 0 0 0 2.088-2.088 31.247 31.247 0 0 0 .5-5.783 31.247 31.247 0 0 0-.5-5.805zM9.609 15.601V8.408l6.264 3.602z"/></svg>

<?xml version="1.0" standalone="no"?><!-- Generator: Gravit.io --><svg xmlns="http://www.w3.org/2000/svg" xmlns:xlink="http://www.w3.org/1999/xlink" style="isolation:isolate" viewBox="0 0 24 24" width="24" height="24"><path d=" M 23.495 6.205 C 23.212 5.192 22.42 4.4 21.407 4.117 C 19.537 3.616 12.011 3.616 12.011 3.616 C 12.011 3.616 4.504 3.606 2.615 4.117 C 1.602 4.4 0.81 5.192 0.527 6.205 C 0.173 8.12 -0.002 10.063 0.005 12.01 C -0.001 13.95 0.174 15.886 0.527 17.793 C 0.81 18.806 1.602 19.598 2.615 19.881 C 4.483 20.383 12.011 20.383 12.011 20.383 C 12.011 20.383 19.517 20.383 21.407 19.881 C 22.42 19.598 23.212 18.806 23.495 17.793 C 23.841 15.885 24.008 13.949 23.995 12.01 C 24.009 10.064 23.842 8.12 23.495 6.205 L 23.495 6.205 L 23.495 6.205 Z  M 9.609 15.601 L 9.609 8.408 L 15.873 12.01 L 9.609 15.601 L 9.609 15.601 Z " fill="rgb(46,125,50)"/></svg>
